X:1
T:Non ti doler mio cor
T:Non ti doler mio cor
T:Barbara Strozzi
T:Source : Ariette a voce sola---Venetia---F.Magni---1657 Editor : André Vierendeels (09/05/16).
T:Notes : Original clefs : C1, F4 Editorial accidentals above the staff Dotted brackets indicate black notes 
T:ADAGIO
T:©
T:©
T:©
C:Barbara Strozzi
Z:©
%%score 1 2
L:1/8
Q:1/4=95
M:6/4
K:Bb
V:1 treble nm="Soprano" snm="S"
V:2 bass nm="BC" snm="BC"
V:1
 G3 A B2 c4 d2 | =B3 A- G2 z2 G4 | z2 A4 d3 e f2 | e2 d2 e2 c2 G2 A2 | B2 B2 c2 _A2 AG AB | %5
w: Non ti do- ler mio|cor, _ _ no,|no, non ti do-|ler mio _ cor se _|pro- v'in tu- o ser- * * *|
w: Se ri- me- dio non|hà, _ _ se,|se, se ri- me-|dio non hà, la pia- ga|ch'è mor- tal mè so- * * *|
w: Co- si co- man- da'il|ciel, _ _ co-|si, co- si, co-|man- da'il ciel, a- mo chi|m'o- dia e ne lan- * * *|
 G2 G2 A2 B6- | B3 B cd e6- | e2 E2 F2 G2 F4 | E6 G3 A B2 | c4 d2 =B3 A G2 | z2 G4 z2 A4 | %11
w: vir pe- * *||* n'è mar- to- *|ri, non ti do-|ler mio cor, _ _|no, no,|
w: lo'in- col- po'e qual||* spe- ro pi- e-|ta, se ri- me-|dio non hà, _ _|se, se,|
w: guis- co'e mo- ro|_ se- * * guo|_ chi mè in- fi-|del, co- si co-|man- da'il ciel, _ _|co- si,|
 d3 e f2 e2 d2 e2 |[M:3/4] c6 :: c2 B2 A2 |[M:6/4] B2 A2 G2 ^F2 D2 D2 | G3 F G2 =E4 E2 | %16
w: non ti do- ler mio _|cor,|u- na pro-|sus- se A- mor che fu|Bar- ba- ra sem- pre,|
w: se ri- me- dio non _|hà,|e qual spe-|ro pi- e- ta, se da|Bar- ba- ra man mi,|
w: co- si co- man- da'il _|ciel,|se- guo chi|m'è in- fi- del, e _|Bar- ba- ra bel- tà;|
"^-natural""^-natural" z2 E2 E2 A3 G A2 | ^F2 F2 A2 c2 cd GA | B2 A4 G6 | z2 G2 G2 c3 B c2 | %20
w: che fu Bar- ba- ra|sem- pre, e tu l'a- * * *|do- * ri,|che fu Bar- ba- ra|
w: se da Bar- ba- ra|man mi vie- ne'il _ _ _ _|_ col- po,|se da Bar- ba- ra|
w: e _ Bar- ba- ra|bel- tà sup- pli- * * * *|ce'a- do- ro,|e _ Bar- ba- ra|
 A2 A2 d2 =B4 e2 | c4 f2 =B2 AB cd | c2 c3 =B c6 :| %23
w: sem- pre, e tu, e-|tu, e tu l'a- * * *|* do- ri. _|
w: man mi, vie- ne, vie-|ne,- vie- ne'il _ _ _ _|_ col- po. _|
w: bel- tà, sup- pli, sup-|pli, sup- pli- * * * *|ce'a- do- ro. _|
V:2
 C4 B,2 _A,4 F,2 | G,4 F,2 =E,6 | F,4 ^F,2 G,4 F,2 | G,6 C,6 | G,4 _A,2 F,2 B,4 | E,6 E,2 E,2 F,2 | %6
 G,6- G,3 G,, A,,B,, | C,6 B,,6 | E,4 D,2 C,4 B,,2 | _A,,4 F,,2 G,,2 G,2 F,2 | =E,6 F,4 ^F,2 | %11
 G,4 F,2 G,6 |[M:3/4] C,6 :: C,6 |[M:6/4] G,2 F,2 E,2 D,4 C,2 | =B,,2 A,,2 B,,2 C,2 C2 B,2 | %16
 A,4 G,2 ^F,2 =E,4 | D,6 E,2 D,2 C,2 | D,6 G,,2 G,2 F,2 | =E,4 D,2 C,2 D,2 E,2 | %20
"^-natural""^b" F,2 E,2 D,2 G,2 F,2 E,2 | _A,2 G,2 F,2 G,2 F,2 E,2 | F,2 G,4 C,6 :| %23

